icons/tokens/0x629c759D1E83eFbF63d84eb3868B564d9521C129/logo.svg

<svg xmlns="http://www.w3.org/2000/svg" width="32" height="32" viewBox="0 0 32 32">
  <defs>
    <linearGradient id="ytoken-crv-comp-lp-a" x1="28.124%" x2="77.719%" y1="15.015%" y2="76.329%">
      <stop offset="0%" stop-color="#004CFF"/>
      <stop offset="25.213%" stop-color="#00E0FB"/>
      <stop offset="50.571%" stop-color="#87FF70"/>
      <stop offset="75.505%" stop-color="#F8F500"/>
      <stop offset="100%" stop-color="#FF1A00"/>
    </linearGradient>
  </defs>
  <g fill="none" fill-rule="evenodd">
    <path fill="#FFF" d="M32,15.999936 C32,13.905856 31.58336,11.811776 30.78208,9.877056 C29.98048,7.942336 28.79424,6.166976 27.3136,4.686336 C25.83296,3.205376 24.0576,2.019456 22.12288,1.217856 C20.18816,0.416576 18.09408,-6.4e-05 16,-6.4e-05 C13.90592,-6.4e-05 11.81152,0.416576 9.8768,1.217856 C7.94208,2.019456 6.16704,3.205376 4.68608,4.686336 C3.20544,6.166976 2.0192,7.942336 1.21792,9.877056 C0.41632,11.811776 0,13.905856 0,15.999936 C0,18.094016 0.41632,20.188096 1.21792,22.122816 C2.0192,24.057536 3.20544,25.832896 4.68608,27.313856 C6.16704,28.794496 7.94208,29.980736 9.8768,30.782016 C11.81152,31.583296 13.90592,31.999936 16,31.999936 C18.09408,31.999936 20.18816,31.583296 22.12288,30.782016 C24.0576,29.980736 25.83296,28.794496 27.3136,27.313856 C28.79424,25.832896 29.98048,24.057536 30.78208,22.122816 C31.58336,20.188096 32,18.094016 32,15.999936 Z"/>
    <path fill="url(#ytoken-crv-comp-lp-a)" d="M11.85472,3.383616 C13.34528,2.893696 14.93824,2.669696 16.51616,2.730176 C18.0944,2.790656 19.65792,3.135936 21.11296,3.743936 C22.56832,4.351936 23.9152,5.222976 25.06752,6.297536 C26.59168,7.719296 27.77504,9.497536 28.4848,11.486656 C29.19488,13.476096 29.43136,15.676416 29.15744,17.771136 C28.88384,19.865856 28.09984,21.855296 26.91392,23.566016 C25.728,25.276736 24.13984,26.708416 22.27456,27.700416 C20.40928,28.692096 18.26624,29.243776 16.15392,29.275776 C14.0416,29.307776 11.95968,28.820416 10.09504,27.894976 C8.23072,26.969536 6.58336,25.606336 5.33248,23.903616 C4.0816,22.200896 3.2272,20.158656 2.888,18.074816 C2.5488,15.990656 2.7248,13.864576 3.37472,11.881216 C3.86592,10.381696 4.62816,8.964096 5.6048,7.735616 L4.12032,7.735616 L4.12032,5.281856 L9.93696,5.281856 L9.93696,10.713536 L7.4832,10.713536 L7.4832,9.229376 C6.6832,10.235456 6.05856,11.396736 5.65632,12.625536 C5.12416,14.251136 4.9808,15.995136 5.25632,17.696896 C5.59872,19.813696 6.5888,21.864896 8.06656,23.445696 C9.83424,25.336256 12.29952,26.554176 14.86592,26.820736 C17.432,27.087296 20.0992,26.402816 22.21728,24.928576 C24.33536,23.454336 25.90496,21.190336 26.54208,18.689856 C27.1792,16.189376 26.88384,13.452416 25.73504,11.142016 C24.58624,8.831616 22.58368,6.948416 20.18912,5.958976 C17.79456,4.969216 15.00768,4.873856 12.60384,5.663616 L11.85472,3.383616 Z"/>
    <path fill="#000" d="M10.8229696,20.1110848 C10.4565198,19.8868029 10.2322379,19.4884879 10.2322379,19.0595333 L10.2322379,16.6647413 C10.2322379,16.3804057 10.4638733,16.1499958 10.7482089,16.1512165 C10.8389022,16.1512165 10.9283698,16.1757331 11.0068072,16.2210797 L16.4104091,19.3720574 C16.7266099,19.555895 16.9214819,19.8941564 16.9214819,20.2606061 L16.9214819,22.7411891 C16.9227034,23.0819015 16.6469469,23.3588836 16.3062344,23.3588836 C16.1922551,23.3588836 16.0795013,23.3270184 15.9826801,23.2681904 L10.8229696,20.1110848 Z M18.8775106,15.565392 C19.1937114,15.7492297 19.3873538,16.0887166 19.3885794,16.4539408 L19.3885794,21.4886417 C19.3885794,21.6369375 19.3089164,21.7742029 19.1790044,21.8465124 L17.9963154,22.5120048 C17.9816084,22.5205839 17.9656758,22.5267118 17.9485176,22.5316141 L17.9485176,19.736056 C17.9485176,19.3745085 17.758552,19.0386984 17.4472536,18.8524096 L12.7017905,16.013956 L12.7017905,12.858076 C12.7017905,12.5737404 12.933426,12.3433305 13.2177616,12.3445512 C13.3084548,12.3445512 13.3979225,12.3690678 13.4763599,12.4144144 L18.8775106,15.565392 Z M21.2428886,11.8469688 C21.560315,12.0308065 21.755183,12.3702934 21.755183,12.7367431 L21.755183,20.0902499 C21.7539574,20.2409968 21.6706176,20.3794878 21.5382545,20.4517973 L20.4168447,21.057236 L20.4168447,15.9379697 C20.4168447,15.5764223 20.2268791,15.2418377 19.9180318,15.0555489 L15.0671686,12.1460114 L15.0671686,9.15313414 C15.0671686,9.06244089 15.0916802,8.97297323 15.1358013,8.89453582 C15.2791947,8.64941893 15.5941699,8.56607919 15.8392868,8.70824699 L21.2428886,11.8469688 Z"/>
  </g>
</svg>

<svg xmlns="http://www.w3.org/2000/svg" width="32" height="32"><defs><linearGradient id="a" x1="28.124%" x2="77.719%" y1="15.015%" y2="76.329%"><stop offset="0%" stop-color="#004CFF"/><stop offset="25.213%" stop-color="#00E0FB"/><stop offset="50.571%" stop-color="#87FF70"/><stop offset="75.505%" stop-color="#F8F500"/><stop offset="100%" stop-color="#FF1A00"/></linearGradient></defs><g fill="none" fill-rule="evenodd"><path fill="#FFF" d="M32 16c0-2.094-.417-4.188-1.218-6.123a16.057 16.057 0 00-3.468-5.19 16.052 16.052 0 00-5.191-3.47A16.055 16.055 0 0016 0c-2.094 0-4.188.417-6.123 1.218a16.055 16.055 0 00-5.19 3.468 16.05 16.05 0 00-3.47 5.191A16.049 16.049 0 000 16c0 2.094.416 4.188 1.218 6.123a16.056 16.056 0 003.468 5.19 16.054 16.054 0 005.19 3.469A16.056 16.056 0 0016 32c2.094 0 4.188-.417 6.123-1.218a16.05 16.05 0 005.19-3.468 16.062 16.062 0 003.47-5.191A16.055 16.055 0 0032 16z"/><path fill="url(#a)" d="M11.855 3.384a13.266 13.266 0 0113.213 2.914 13.155 13.155 0 013.417 5.189c.71 1.99.946 4.19.672 6.284a13.194 13.194 0 01-2.243 5.795 13.207 13.207 0 01-4.64 4.134 13.622 13.622 0 01-6.12 1.576 13.207 13.207 0 01-6.059-1.381 13.19 13.19 0 01-4.763-3.991 13.662 13.662 0 01-2.444-5.83 13.13 13.13 0 01.487-6.193 13.391 13.391 0 012.23-4.145H4.12V5.282h5.817v5.432H7.483V9.229a10.961 10.961 0 00-1.827 3.397 10.786 10.786 0 00-.4 5.07 11.107 11.107 0 002.81 5.75 10.952 10.952 0 006.8 3.375 11.023 11.023 0 007.351-1.892 10.999 10.999 0 004.325-6.24c.637-2.5.342-5.237-.807-7.547a10.919 10.919 0 00-5.546-5.183c-2.394-.99-5.181-1.085-7.585-.295l-.75-2.28z"/><path fill="#000" d="M10.823 20.111a1.234 1.234 0 01-.59-1.051v-2.395a.514.514 0 01.774-.444l5.403 3.151c.317.184.511.522.511.889v2.48a.615.615 0 01-.938.527l-5.16-3.157zm8.055-4.546c.316.184.51.524.51.889v5.035a.41.41 0 01-.209.358l-1.183.665a.206.206 0 01-.047.02v-2.796c0-.361-.19-.697-.502-.884l-4.745-2.838v-3.156a.514.514 0 01.774-.444l5.402 3.151zm2.365-3.718c.317.184.512.523.512.89v7.353a.416.416 0 01-.217.362l-1.121.605v-5.119c0-.362-.19-.696-.499-.882l-4.85-2.91V9.153c0-.09.024-.18.068-.258a.516.516 0 01.703-.187l5.404 3.139z"/></g></svg>
